svg/building/bank_fill.svg

<?xml version="1.0" encoding="UTF-8"?>
<svg width="24px" height="24px" viewBox="0 0 24 24" version="1.1" xmlns="http://www.w3.org/2000/svg" xmlns:xlink="http://www.w3.org/1999/xlink">
    <title>bank_fill</title>
    <g id="页面-1" stroke="none" stroke-width="1" fill="none" fill-rule="evenodd">
        <g id="Building" transform="translate(-192.000000, -48.000000)">
            <g id="bank_fill" transform="translate(192.000000, 48.000000)">
                 <path d="M24,0 L24,24 L0,24 L0,0 L24,0 Z M12.5934901,23.257841 L12.5819402,23.2595131 L12.5108777,23.2950439 L12.4918791,23.2987469 L12.4918791,23.2987469 L12.4767152,23.2950439 L12.4056548,23.2595131 C12.3958229,23.2563662 12.3870493,23.2590235 12.3821421,23.2649074 L12.3780323,23.275831 L12.360941,23.7031097 L12.3658947,23.7234994 L12.3769048,23.7357139 L12.4804777,23.8096931 L12.4953491,23.8136134 L12.4953491,23.8136134 L12.5071152,23.8096931 L12.6106902,23.7357139 L12.6232938,23.7196733 L12.6232938,23.7196733 L12.6266527,23.7031097 L12.609561,23.275831 C12.6075724,23.2657013 12.6010112,23.2592993 12.5934901,23.257841 L12.5934901,23.257841 Z M12.8583906,23.1452862 L12.8445485,23.1473072 L12.6598443,23.2396597 L12.6498822,23.2499052 L12.6498822,23.2499052 L12.6471943,23.2611114 L12.6650943,23.6906389 L12.6699349,23.7034178 L12.6699349,23.7034178 L12.678386,23.7104931 L12.8793402,23.8032389 C12.8914285,23.8068999 12.9022333,23.8029875 12.9078286,23.7952264 L12.9118235,23.7811639 L12.8776777,23.1665331 C12.8752882,23.1545897 12.8674102,23.1470016 12.8583906,23.1452862 L12.8583906,23.1452862 Z M12.1430473,23.1473072 C12.1332178,23.1423925 12.1221763,23.1452606 12.1156365,23.1525954 L12.1099173,23.1665331 L12.0757714,23.7811639 C12.0751323,23.7926639 12.0828099,23.8018602 12.0926481,23.8045676 L12.108256,23.8032389 L12.3092106,23.7104931 L12.3186497,23.7024347 L12.3186497,23.7024347 L12.3225043,23.6906389 L12.340401,23.2611114 L12.337245,23.2485176 L12.337245,23.2485176 L12.3277531,23.2396597 L12.1430473,23.1473072 Z" id="MingCute" fill-rule="nonzero"></path>
                <path d="M12.6708,2.21744 L21.1708,6.96744 C21.679,7.22153 22,7.74092 22,8.30908 L22,9.75006 C22,10.4404 21.4404,11.0001 20.75,11.0001 L20,11.0001 L20,19.0001 L21,19.0001 C21.5523,19.0001 22,19.4478 22,20.0001 C22,20.5524 21.5523,21.0001 21,21.0001 L3,21.0001 C2.44772,21.0001 2,20.5524 2,20.0001 C2,19.4478 2.44772,19.0001 3,19.0001 L4,19.0001 L4,11.0001 L3.25,11.0001 C2.55964,11.0001 2,10.4404 2,9.75006 L2,8.30908 C2,7.78826667 2.26973757,7.30843368 2.70611413,7.03636428 L11.3292,2.21744 C11.7515,2.0063 12.2485,2.0063 12.6708,2.21744 Z M17,11.0001 L7,11.0001 L7,19.0001 L9,19.0001 L9,13.0001 L11,13.0001 L11,19.0001 L13,19.0001 L13,13.0001 L15,13.0001 L15,19.0001 L17,19.0001 L17,11.0001 Z M12,6.00012 C11.4477,6.00012 11,6.44784 11,7.00012 C11,7.55241 11.4477,8.00012 12,8.00012 C12.5523,8.00012 13,7.55241 13,7.00012 C13,6.44784 12.5523,6.00012 12,6.00012 Z" id="形状" fill="#09244B"></path>
            </g>
        </g>
    </g>
</svg>

<svg xmlns="http://www.w3.org/2000/svg" width="24" height="24"><g fill="none" fill-rule="evenodd"><path d="M24 0v24H0V0h24ZM12.593 23.258l-.011.002-.071.035-.02.004-.014-.004-.071-.035c-.01-.004-.019-.001-.024.005l-.004.01-.017.428.005.02.01.013.104.074.015.004.012-.004.104-.074.012-.016.004-.017-.017-.427c-.002-.01-.009-.017-.017-.018Zm.265-.113-.013.002-.185.093-.01.01-.003.011.018.43.005.012.008.007.201.093c.012.004.023 0 .029-.008l.004-.014-.034-.614c-.003-.012-.01-.02-.02-.022Zm-.715.002a.023.023 0 0 0-.027.006l-.006.014-.034.614c0 .012.007.02.017.024l.015-.002.201-.093.01-.008.004-.011.017-.43-.003-.012-.01-.01-.184-.092Z"/><path fill="#09244B" d="m12.67 2.217 8.5 4.75A1.5 1.5 0 0 1 22 8.31V9.75c0 .69-.56 1.25-1.25 1.25H20v8h1a1 1 0 1 1 0 2H3a1 1 0 1 1 0-2h1v-8h-.75C2.56 11 2 10.44 2 9.75V8.31c0-.522.27-1.002.706-1.274l8.623-4.819a1.5 1.5 0 0 1 1.342 0ZM17 11H7v8h2v-6h2v6h2v-6h2v6h2v-8Zm-5-5a1 1 0 1 0 0 2 1 1 0 0 0 0-2Z"/></g></svg>
